svgs/duotone/list-ul.svg

<svg xmlns="http://www.w3.org/2000/svg" viewBox="0 0 512 512"><!--! Font Awesome Pro 6.4.2 by @fontawesome - https://fontawesome.com License - https://fontawesome.com/license (Commercial License) Copyright 2023 Fonticons, Inc. --><path class="fa-primary" style="fill:var(--fa-primary-color,inherit);opacity:var(--fa-primary-opacity,1);" d="M64 144a48 48 0 1 0 0-96 48 48 0 1 0 0 96zm48 112a48 48 0 1 0 -96 0 48 48 0 1 0 96 0zm0 160a48 48 0 1 0 -96 0 48 48 0 1 0 96 0z"/><path class="fa-secondary" style="fill:var(--fa-secondary-color,inherit);opacity:var(--fa-secondary-opacity,.4);" d="M160 96c0-17.7 14.3-32 32-32H480c17.7 0 32 14.3 32 32s-14.3 32-32 32H192c-17.7 0-32-14.3-32-32zm0 160c0-17.7 14.3-32 32-32H480c17.7 0 32 14.3 32 32s-14.3 32-32 32H192c-17.7 0-32-14.3-32-32zm32 128H480c17.7 0 32 14.3 32 32s-14.3 32-32 32H192c-17.7 0-32-14.3-32-32s14.3-32 32-32z"/></svg>

<svg xmlns="http://www.w3.org/2000/svg" viewBox="0 0 512 512"><!--! Font Awesome Pro 6.1.1 by @fontawesome - https://fontawesome.com License - https://fontawesome.com/license (Commercial License) Copyright 2022 Fonticons, Inc. --><defs><style>.fa-secondary{opacity:.4}</style></defs><path class="fa-primary" d="M16 96C16 69.49 37.49 48 64 48C90.51 48 112 69.49 112 96C112 122.5 90.51 144 64 144C37.49 144 16 122.5 16 96zM112 256C112 282.5 90.51 304 64 304C37.49 304 16 282.5 16 256C16 229.5 37.49 208 64 208C90.51 208 112 229.5 112 256zM112 416C112 442.5 90.51 464 64 464C37.49 464 16 442.5 16 416C16 389.5 37.49 368 64 368C90.51 368 112 389.5 112 416z"/><path class="fa-secondary" d="M160 96C160 78.33 174.3 64 192 64H480C497.7 64 512 78.33 512 96C512 113.7 497.7 128 480 128H192C174.3 128 160 113.7 160 96zM160 256C160 238.3 174.3 224 192 224H480C497.7 224 512 238.3 512 256C512 273.7 497.7 288 480 288H192C174.3 288 160 273.7 160 256zM480 384C497.7 384 512 398.3 512 416C512 433.7 497.7 448 480 448H192C174.3 448 160 433.7 160 416C160 398.3 174.3 384 192 384H480z"/></svg>
